img/icon-list.svg

<svg width="128" height="128" viewBox="0 0 128 128" fill="none" xmlns="http://www.w3.org/2000/svg">
<g clip-path="url(#clip0)">
<path d="M64.5057 36.9766C58.3655 47.5027 53.1699 58.1637 53.1699 61.8074C53.1699 68.0825 58.2305 73.1432 64.5057 73.1432C70.7809 73.1432 75.8415 68.0825 75.8415 61.8074C75.8415 58.1637 70.6459 47.5027 64.5057 36.9766Z" fill="#1ED261"/>
<path d="M75.7061 90.9561C75.7061 92.7779 76.3808 94.4648 77.6628 95.7468C78.9449 97.0288 80.6317 97.7036 82.4536 97.7036C84.2754 97.7036 85.9623 97.0288 87.2443 95.7468C88.7287 94.1949 91.0229 87.9197 93.1821 80.2275C85.5574 82.3867 79.2148 84.6809 77.6628 86.1653C76.3808 87.4474 75.7061 89.1342 75.7061 90.9561Z" fill="#1ED261"/>
<path d="M51.2814 85.4911C49.662 84.1416 43.1844 82.1848 35.4248 80.5654C38.0563 88.0551 40.7553 94.1953 42.3072 95.6798C43.6567 96.8943 45.4111 97.4341 47.1654 97.3667C48.9873 97.2317 50.6067 96.422 51.8212 95.0725C53.0358 93.723 53.643 91.9687 53.5081 90.1469C53.4406 88.3925 52.6309 86.7056 51.2814 85.4911Z" fill="#1ED261"/>
<path d="M64.0337 0C28.6769 0 0 28.6769 0 64.0337C0 99.3906 28.6769 128.067 64.0337 128.067C99.3906 128.067 128.067 99.3906 128.067 64.0337C128 28.6769 99.3231 0 64.0337 0ZM97.2314 105.733C93.1829 109.782 87.7849 111.873 82.4544 111.873C78.6758 111.873 74.8297 110.861 71.5235 108.77V112.548H57.3537V108.635C54.5872 110.254 51.4159 111.266 48.1096 111.469C47.6373 111.469 47.2325 111.536 46.7602 111.536C41.6321 111.536 36.7739 109.714 32.9278 106.273C26.3152 100.47 20.5799 81.3748 18.3532 73.4128L15.5192 63.0216L26.1803 64.5735C29.3516 65.0459 34.2098 65.7881 39.4054 66.9352C39.068 65.3158 38.8656 63.6289 38.8656 61.8745C38.8656 58.3658 39.9452 51.8208 48.9868 35.4918C53.7775 26.99 58.3658 19.9726 58.5683 19.6352L64.5061 10.5936L70.4439 19.6352C75.0322 26.6526 90.0116 50.4038 90.0116 61.8071C90.0116 63.359 89.8767 64.9109 89.6068 66.4628C94.2625 65.1808 98.5134 64.2362 101.347 63.6289L111.941 61.4022L109.714 71.9958C108.095 80.0928 103.507 99.5256 97.2314 105.733Z" fill="#1ED261"/>
</g>
<defs>
<clipPath id="clip0">
<rect width="128" height="128" fill="white"/>
</clipPath>
</defs>
</svg>

<svg width="128" height="128" fill="none" xmlns="http://www.w3.org/2000/svg"><g clip-path="url(#clip0)" fill="#1ED261"><path d="M64.506 36.977c-6.14 10.526-11.336 21.187-11.336 24.83 0 6.275 5.06 11.336 11.336 11.336 6.275 0 11.335-5.06 11.335-11.336 0-3.643-5.195-14.304-11.335-24.83zM75.706 90.956c0 1.822.675 3.509 1.957 4.79 1.282 1.283 2.969 1.958 4.79 1.958 1.822 0 3.51-.675 4.791-1.957 1.485-1.552 3.779-7.827 5.938-15.52-7.625 2.16-13.967 4.454-15.52 5.938-1.281 1.282-1.956 2.97-1.956 4.791zM51.281 85.491c-1.619-1.35-8.097-3.306-15.856-4.926 2.631 7.49 5.33 13.63 6.882 15.115 1.35 1.214 3.104 1.754 4.858 1.687a6.868 6.868 0 004.656-2.294 6.588 6.588 0 001.687-4.926c-.067-1.755-.877-3.441-2.227-4.656z"/><path d="M64.034 0C28.677 0 0 28.677 0 64.034c0 35.357 28.677 64.033 64.034 64.033 35.357 0 64.033-28.676 64.033-64.033C128 28.677 99.323 0 64.034 0zM97.23 105.733a20.961 20.961 0 01-14.777 6.14c-3.778 0-7.624-1.012-10.93-3.103v3.778h-14.17v-3.913a20.891 20.891 0 01-9.244 2.834c-.473 0-.877.067-1.35.067-5.128 0-9.986-1.822-13.832-5.263-6.613-5.803-12.348-24.898-14.575-32.86L15.52 63.022l10.661 1.551c3.172.473 8.03 1.215 13.225 2.362a24.742 24.742 0 01-.54-5.06c0-3.51 1.08-10.054 10.122-26.383 4.79-8.502 9.379-15.52 9.581-15.857l5.938-9.041 5.938 9.041c4.588 7.018 19.568 30.769 19.568 42.172 0 1.552-.135 3.104-.405 4.656 4.656-1.282 8.906-2.227 11.74-2.834l10.594-2.227-2.227 10.594c-1.619 8.097-6.207 27.53-12.483 33.737z"/></g><defs><clipPath id="clip0"><path fill="#fff" d="M0 0h128v128H0z"/></clipPath></defs></svg>
